X: 1
T:Kas a barh
C:Gwenva
M:4/4
L:1/8
K:C
A2Bc d3e|c2d2 c2c2|A2Bc d2e2|c2d2 c4:|\
A2Bc e3d|c2B2 A2G2|cdcB A2G2|\
cdcB A2d2|dcBc d2d2|c2B2 c4:|
